icons/list-check.svg

<svg xmlns="http://www.w3.org/2000/svg" width="24" height="24" viewBox="0 0 24 24">
  <path d="M8.66162164,16.2501621 C9.04388996,16.5874577 9.10694839,17.1518544 8.82698797,17.5624086 L8.74983786,17.6616216 L5.22042609,21.6616216 C4.85076906,22.0805663 4.21778317,22.1104909 3.81050773,21.7513955 L3.72075038,21.6616216 L2.25016214,19.994955 C1.8847586,19.580831 1.92425435,18.948899 2.33837836,18.5834955 C2.72064668,18.2461999 3.28850282,18.2539073 3.66100314,18.5828086 L3.74983786,18.6717117 L4.47,19.488 L7.25016214,16.3383784 C7.61556568,15.9242544 8.24749762,15.8847586 8.66162164,16.2501621 Z M21,18 C21.5522847,18 22,18.4477153 22,19 C22,19.5128358 21.6139598,19.9355072 21.1166211,19.9932723 L21,20 L13,20 C12.4477153,20 12,19.5522847 12,19 C12,18.4871642 12.3860402,18.0644928 12.8833789,18.0067277 L13,18 L21,18 Z M8.66162164,9.25016214 C9.04388996,9.58745772 9.10694839,10.1518544 8.82698797,10.5624086 L8.74983786,10.6616216 L5.22042609,14.6616216 C4.85076906,15.0805663 4.21778317,15.1104909 3.81050773,14.7513955 L3.72075038,14.6616216 L2.25016214,12.994955 C1.8847586,12.580831 1.92425435,11.948899 2.33837836,11.5834955 C2.72064668,11.2461999 3.28850282,11.2539073 3.66100314,11.5828086 L3.74983786,11.6717117 L4.47,12.488 L7.25016214,9.33837836 C7.61556568,8.92425435 8.24749762,8.8847586 8.66162164,9.25016214 Z M21,11 C21.5522847,11 22,11.4477153 22,12 C22,12.5128358 21.6139598,12.9355072 21.1166211,12.9932723 L21,13 L13,13 C12.4477153,13 12,12.5522847 12,12 C12,11.4871642 12.3860402,11.0644928 12.8833789,11.0067277 L13,11 L21,11 Z M8.66162164,2.25016214 C9.04388996,2.58745772 9.10694839,3.15185442 8.82698797,3.5624086 L8.74983786,3.66162164 L5.22042609,7.66162164 C4.85076906,8.08056628 4.21778317,8.11049089 3.81050773,7.75139549 L3.72075038,7.66162164 L2.25016214,5.99495497 C1.8847586,5.58083096 1.92425435,4.94889902 2.33837836,4.58349548 C2.72064668,4.2461999 3.28850282,4.25390727 3.66100314,4.5828086 L3.74983786,4.6717117 L4.47,5.488 L7.25016214,2.33837836 C7.61556568,1.92425435 8.24749762,1.8847586 8.66162164,2.25016214 Z M21,4 C21.5522847,4 22,4.44771525 22,5 C22,5.51283584 21.6139598,5.93550716 21.1166211,5.99327227 L21,6 L13,6 C12.4477153,6 12,5.55228475 12,5 C12,4.48716416 12.3860402,4.06449284 12.8833789,4.00672773 L13,4 L21,4 Z"/>
</svg>

<svg xmlns="http://www.w3.org/2000/svg" viewBox="0 0 24 24">
  <path d="M8.66 16.25a1 1 0 0 1 .17 1.31l-.08.1-3.53 4a1 1 0 0 1-1.4.1l-.1-.1L2.25 20a1 1 0 0 1 1.41-1.4l.09.08.72.82 2.78-3.15a1 1 0 0 1 1.41-.09zM21 18a1 1 0 0 1 .12 2H13a1 1 0 0 1-.12-2H21zM8.66 9.25a1 1 0 0 1 .17 1.31l-.08.1-3.53 4a1 1 0 0 1-1.4.1l-.1-.1L2.25 13a1 1 0 0 1 1.41-1.4l.09.08.72.82 2.78-3.15a1 1 0 0 1 1.41-.09zM21 11a1 1 0 0 1 .12 2H13a1 1 0 0 1-.12-2H21zM8.66 2.25a1 1 0 0 1 .17 1.31l-.08.1-3.53 4a1 1 0 0 1-1.4.1l-.1-.1L2.25 6a1 1 0 0 1 1.41-1.4l.09.08.72.82 2.78-3.15a1 1 0 0 1 1.41-.09zM21 4a1 1 0 0 1 .12 2H13a1 1 0 0 1-.12-2H21z"/>
</svg>
